img/icon/doc.svg

<svg width="30" height="38" fill="none" xmlns="http://www.w3.org/2000/svg"><path d="M29 11h-8a2 2 0 0 1-2-2V1m0 30h4m4.828-23.172l-5.656-5.656A4.001 4.001 0 0 0 19.344 1H5C2.79 1 1 2.79 1 5v28c0 2.21 1.79 4 4 4h20c2.21 0 4-1.79 4-4V10.656c0-1.06-.422-2.078-1.172-2.828zM7 31v-4l8.586-8.586a1.998 1.998 0 0 1 2.828 0l1.172 1.172a1.998 1.998 0 0 1 0 2.828L11 31H7z" stroke="#E5E5E5" stroke-width="2" stroke-linecap="round" stroke-linejoin="round"/></svg>

<svg width="30" height="38" viewBox="0 0 30 38" fill="none" xmlns="http://www.w3.org/2000/svg">
<path d="M29 11H21C19.896 11 19 10.104 19 9V1M19 31H23M27.828 7.828L22.172 2.172C21.422 1.422 20.404 1 19.344 1H5C2.79 1 1 2.79 1 5V33C1 35.21 2.79 37 5 37H25C27.21 37 29 35.21 29 33V10.656C29 9.596 28.578 8.578 27.828 7.828ZM7 31V27L15.586 18.414C16.368 17.632 17.634 17.632 18.414 18.414L19.586 19.586C20.368 20.368 20.368 21.634 19.586 22.414L11 31H7Z" stroke="#E5E5E5" stroke-width="2" stroke-linecap="round" stroke-linejoin="round"/>
</svg>
